X:555
T: DIE DUNKLE NACHT IST NUN DAHIN
N: F1080
O: Europa, Mitteleuropa, Deutschland
R: Trost - Lied, religioes
M: 6/4
L: 1/8
K: D
D2 | =C4_B,2A,4G,2 | =F,3E,D,E,C2z2
E,2 | =F,4F,2G,4A,2 | A,4G,2A,2z2
D2 | =C4_B,2A,4G,2 | =F,3E,D,E,C2z2
E,2 | =F,4F,2G,4A,2 | A,4G,2A,2z2
A,2 | =C2G,2_B,A,A,4A,2 | G,3=F,E,2F,2F,2
A,2 | B,4C2D3E=F2 | E3DC2D2D2

@@@ Tune index: 5986
